X:1
T: Sir George Clerk of Pennycuick
C:Nathaniel Gow
R:Strathspey
Q: 128
K:G
M:4/4
L:1/16
|:ga|bg3 g4 dB3 B4|ce3 ce3 A6 Bc|dB3 B4 GE3 E4|c3A B3G GFED D2ga|
bg3 g4 dB3 B4|ce3 ce3 A6 Bc|dB3 B4 gE3 E3G|GFED D2EF G6:|
|:dc|Bd3 d4 db3 b3a|ge3 e3d d6 dc|Bd3 d4 e3B c4|d3A B3G GFED D2EF|
GB3 B4 Bd3 d4|g3d e3d d2ef gabc'|d'b3 bg3 ge3 ec3|B3G A3F G6:|
